X:85
T:Untitled Hornpipe
R:hornpipe
S:Mysterious tape marked with the names (among others) McGlinchey,
S:Casey, and O'Beirne among others. Player is suspected to be Danny
S:O'Donnell, but I really don't know...
Z:Rough transcription by Larry Sanger
M:4/4
K:F
cB|:AcfA cfAc|fagf gafd|AcgA caAc|fagf edcB|
|AcfA cfAc|fagf {ga}g2 fd|1 c/d/c Bc AGFE|{G}FEFG F2 cB:|
|2 {dc}c=Bcd c_BAG||:{G}FEFG F2EF||D^CDE FEFG|A/B/A Gc AddA|
|B/c/B GB A/B/A FA|GcAG FDCE|D^CDE FEFG|A/B/A Gc AddA|
|~B3G AGFE|F2CF A,3F|D^CDE FEFG|A/B/A Gc AddA|
|~B3G AGFE|FAGF EDCE|D^CDE FEFG|A/B/A Gc AddA|
|~B3G AGFE|F2CF A,2||
